X: 4687
T: Boyne Hunt, The
R: reel
M: 4/4
K: Dmajor
E2CE A,ECE|A,ECE FB,B,F|E2CE A,ECE|EFAB cBAF|
E2CE A,ECE|A,ECE FB,B,F|E2CE A,ECE|EFAB cBAB||
cAeA fAeA|caec dBGB|cAeA fAeA|EFAB cBAB|
cAaA gAfA|ecBA GBed|c2B2 AFED|CEAB cBAF||

